eperusteet-opintopolku-app/v2/public/img/icons/kielet.svg

<?xml version="1.0" encoding="UTF-8"?>
<svg width="20px" height="20px" viewBox="0 0 20 20" version="1.1" xmlns="http://www.w3.org/2000/svg" xmlns:xlink="http://www.w3.org/1999/xlink">
    <!-- Generator: sketchtool 58 (101010) - https://sketch.com -->
    <title>D2E34E0B-94C7-43EE-BF07-6702A784AABF@2x</title>
    <desc>Created with sketchtool.</desc>
    <defs>
        <path d="M12,5.15143483e-14 C12.446875,5.15143483e-14 12.9260842,0.332580175 12.9922627,0.757543732 L13,0.857142857 L13,6 L19.125,6 C19.60625,6 20,6.38571429 20,6.85714286 L20,20 L17,17 L8,17 C7.51875,17 7,16.4714286 7,16 L7,11 L3,11 L0,14 L0,0.857142857 C0,0.421978022 0.335502959,0.0598478445 0.765634957,0.00671044931 L0.875,5.15143483e-14 L12,5.15143483e-14 Z M12.999,7.999 L9,8 L8.999,10.999 L12.013,10.999 L12,11 L8.999,11 L9,15 L17,15 L18,16 L18,8 L13,7.999 L13,9 L14,9 L16,14 L15,14 L14.3524475,12.5 L12.6397247,12.5 L12,14 L11,14 L12.999,9.003 L12.999,7.999 Z M13.5,10.4425824 L13.077033,11.5 L13.922967,11.5 L13.5,10.4425824 Z M11,2 L2,2 L2,10 L3,9 L7,8.999 L7,7.616 L6.7236068,8.17082039 L5.52589262,7.57160959 C5.22803756,7.84014895 4.89038553,8.08086297 4.51356063,8.29324614 L4.2236068,8.4472136 L3.7763932,8.67082039 L3.32917961,7.7763932 L3.7763932,7.5527864 C4.05894141,7.4115123 4.31568201,7.254858 4.54701719,7.08249774 L3.82917961,6.7236068 L4.2763932,5.82917961 L5.30924108,6.34539791 C5.59456965,5.98188397 5.80737457,5.57139994 5.94965583,5.11232589 L5.98,5 L3,5 L3,4 L5,4 L5,3 L6,3 L6,4 L8,4 L8,5 L7.015,5 L6.98507125,5.12126781 C6.82883558,5.74621048 6.57229714,6.30659255 6.2178165,6.80050204 L7,7.191 L7,6.85714286 C7,6.38571429 7.51875,6 8,6 L11,6 L11,2 Z" id="path-1"></path>
    </defs>
    <g id="ASSETIT" stroke="none" stroke-width="1" fill="none" fill-rule="evenodd">
        <g id="ASSETIT---IKONIT" transform="translate(-89.000000, -447.000000)">
            <g id="Ikonit/Kielet" transform="translate(89.000000, 447.000000)">
                <g>
                    <mask id="mask-2" fill="white">
                        <use xlink:href="#path-1"></use>
                    </mask>
                    <use id="Mask" fill="#000000" fill-rule="nonzero" xlink:href="#path-1"></use>
                    <g id="Värit/Tumma-harmaa" mask="url(#mask-2)" fill="#575757">
                        <g transform="translate(0.000000, -1.000000)" id="Rectangle">
                            <rect x="0" y="0" width="21" height="21"></rect>
                        </g>
                    </g>
                </g>
            </g>
        </g>
    </g>
</svg>

<svg width="21" height="20" xmlns="http://www.w3.org/2000/svg">
    <path d="M12 0c.447 0 .926.333.992.758l.008.1V6h6.125a.87.87 0 01.875.857V20l-3-3H8c-.481 0-1-.529-1-1v-5H3l-3 3V.857C0 .422.336.06.766.007L.875 0H12zm.999 7.999L9 8l-.001 2.999h3.014L12 11H8.999L9 15h8l1 1V8l-5-.001V9h1l2 5h-1l-.648-1.5H12.64L12 14h-1l1.999-4.997V7.999zm.501 2.444l-.423 1.057h.846l-.423-1.057zM11 2H2v8l1-1 4-.001V7.616l-.276.555-1.198-.6c-.298.27-.636.51-1.012.722l-.29.154-.448.224-.447-.895.447-.223c.283-.141.54-.298.771-.47l-.718-.36.447-.894 1.033.516c.286-.363.498-.774.64-1.233L5.98 5H3V4h2V3h1v1h2v1h-.985l-.03.121a4.882 4.882 0 01-.767 1.68L7 7.19v-.334C7 6.386 7.519 6 8 6h3V2z"/>
</svg>
